src/help-circle-outline.svg

<svg width="24" height="24" viewBox="0 0 24 24" xmlns="http://www.w3.org/2000/svg" xmlns:xlink="http://www.w3.org/1999/xlink">
  <path d="M11 18h2v-2h-2v2zm1-16C6.48 2 2 6.48 2 12s4.48 10 10 10 10-4.48 10-10S17.52 2 12 2zm0 18c-4.41 0-8-3.59-8-8s3.59-8 8-8 8 3.59 8 8-3.59 8-8 8zm0-14c-2.21 0-4 1.79-4 4h2c0-1.1.9-2 2-2s2 .9 2 2c0 2-3 1.75-3 5h2c0-2.25 3-2.5 3-5 0-2.21-1.79-4-4-4z" fill="currentColor"/>
</svg>

<svg width="24" height="24" viewBox="0 0 24 24" xmlns="http://www.w3.org/2000/svg">
<path fill-rule="evenodd" clip-rule="evenodd" d="M11 18H13V16H11V18ZM12 2C6.48 2 2 6.48 2 12C2 17.52 6.48 22 12 22C17.52 22 22 17.52 22 12C22 6.48 17.52 2 12 2ZM12 20C7.59 20 4 16.41 4 12C4 7.59 7.59 4 12 4C16.41 4 20 7.59 20 12C20 16.41 16.41 20 12 20ZM12 6C9.79 6 8 7.79 8 10H10C10 8.9 10.9 8 12 8C13.1 8 14 8.9 14 10C14 12 11 11.75 11 15H13C13 12.75 16 12.5 16 10C16 7.79 14.21 6 12 6Z" fill="currentColor"/>
</svg>
